img/pay5.svg

<svg width="31" height="21" viewBox="0 0 31 21" fill="none" xmlns="http://www.w3.org/2000/svg">
<path d="M24.7606 9.88076C24.6006 9.73829 24.3997 9.66699 24.1581 9.66699C23.8384 9.66699 23.5704 9.77714 23.3546 9.99745C23.1386 10.2177 23.0306 10.4879 23.0306 10.8073C23.0306 11.0494 23.1084 11.2395 23.2639 11.3775C23.4195 11.5158 23.6223 11.5848 23.873 11.5848C24.184 11.5848 24.4497 11.4768 24.6699 11.2608C24.8902 11.045 25.0004 10.7814 25.0004 10.4705C25.0004 10.2199 24.9203 10.0234 24.7606 9.88076ZM10.0396 9.88076C9.87966 9.73829 9.6788 9.66699 9.43699 9.66699C9.11727 9.66699 8.8494 9.77714 8.63361 9.99745C8.41754 10.2177 8.30957 10.4879 8.30957 10.8073C8.30957 11.0494 8.3851 11.2395 8.53641 11.3775C8.68744 11.5158 8.88833 11.5848 9.13902 11.5848C9.45842 11.5848 9.72855 11.4792 9.9489 11.2673C10.1692 11.0558 10.2794 10.7901 10.2794 10.4705C10.2794 10.2199 10.1993 10.0234 10.0396 9.88076Z" fill="white"/>
<path d="M28.8208 0.419434H2.28297C1.08176 0.419434 0.104492 1.3967 0.104492 2.59791V18.0849C0.104492 19.2861 1.08176 20.2634 2.28297 20.2634H28.8208C30.022 20.2634 30.9993 19.2861 30.9993 18.0849V2.59791C30.9993 1.3967 30.022 0.419434 28.8208 0.419434ZM4.88832 10.6265C4.86241 10.6265 4.80185 10.6223 4.70691 10.6137C4.61177 10.6051 4.5297 10.6007 4.46066 10.6007C4.39142 10.6007 4.31811 10.6072 4.24036 10.62C4.1626 10.6329 4.09776 10.6612 4.046 10.7044C3.99415 10.7476 3.96377 10.8038 3.95525 10.8729L3.72204 12.2982C3.70461 12.4624 3.60967 12.5444 3.43693 12.5444H2.4521C2.40025 12.5444 2.357 12.5229 2.32254 12.4796C2.28792 12.4364 2.27493 12.3889 2.28368 12.337L3.12596 7.04993C3.14319 6.88588 3.2339 6.80377 3.39804 6.80377H5.47143C6.00698 6.80377 6.44106 6.91839 6.77377 7.14709C7.10628 7.37615 7.27272 7.74546 7.27272 8.25511C7.27272 8.99821 7.06089 9.57911 6.63771 9.99805C6.21434 10.4172 5.63122 10.6265 4.88832 10.6265ZM11.8081 8.91594L11.2768 12.2981C11.2509 12.4623 11.1558 12.5443 10.9918 12.5443H10.0977C9.98532 12.5443 9.9292 12.4754 9.9292 12.337C9.9292 12.2593 9.94639 12.1686 9.98105 12.065C9.82554 12.2378 9.61819 12.376 9.35903 12.4796C9.09991 12.5832 8.84923 12.6351 8.60746 12.6351C8.10633 12.6351 7.70687 12.4841 7.40882 12.1816C7.11076 11.8793 6.96171 11.4733 6.96171 10.9635C6.96171 10.3329 7.17976 9.78424 7.61609 9.31773C8.05234 8.85122 8.58151 8.61793 9.20353 8.61793C9.79096 8.61793 10.2013 8.7909 10.4346 9.13632C10.4605 8.85122 10.5338 8.70863 10.6549 8.70863H11.6398C11.6915 8.70863 11.7347 8.7303 11.7693 8.77343C11.8037 8.81664 11.8166 8.86409 11.8081 8.91594ZM13.5058 13.879H12.508C12.3956 13.879 12.3395 13.8229 12.3395 13.7105C12.3395 13.6415 12.6936 13.1232 13.4021 12.1555C13.3934 12.1212 13.2919 11.8187 13.0975 11.2486C12.9164 10.7172 12.735 10.1858 12.5534 9.65456C12.3849 9.16215 12.3007 8.90743 12.3007 8.89C12.3007 8.84694 12.3179 8.80579 12.3525 8.76697C12.3869 8.72808 12.4257 8.70859 12.469 8.70859H13.4411C13.5878 8.70859 13.6828 8.77787 13.7261 8.91598L14.2963 10.8598L15.6699 8.83815C15.7302 8.752 15.8079 8.70859 15.9031 8.70859H16.901C16.944 8.70859 16.983 8.72812 17.0176 8.76697C17.0519 8.80579 17.0693 8.8469 17.0693 8.89C17.0693 8.93345 17.0607 8.96355 17.0435 8.9807L13.7391 13.7496C13.6784 13.836 13.6008 13.879 13.5058 13.879ZM19.6091 10.6265C19.5833 10.6265 19.5227 10.6223 19.4277 10.6137C19.3326 10.6051 19.2506 10.6007 19.1816 10.6007C19.1123 10.6007 19.0389 10.6072 18.9612 10.62C18.8834 10.6329 18.8187 10.6612 18.7669 10.7044C18.7149 10.7476 18.6847 10.8038 18.6762 10.8729L18.4428 12.376C18.4082 12.4883 18.3391 12.5444 18.2355 12.5444H17.173C17.1211 12.5444 17.0777 12.5229 17.0434 12.4796C17.0087 12.4364 16.9958 12.3889 17.0046 12.337L17.8468 7.04993C17.864 6.88588 17.959 6.80377 18.1319 6.80377H20.1923C20.728 6.80377 21.162 6.91839 21.4946 7.14709C21.8272 7.37615 21.9936 7.74546 21.9935 8.25511C21.9935 8.99821 21.7818 9.57911 21.3586 9.99805C20.9351 10.4172 20.3521 10.6265 19.6091 10.6265ZM26.5291 8.91594L25.9977 12.2981C25.9719 12.4623 25.8767 12.5443 25.7128 12.5443H24.8186C24.7061 12.5443 24.6501 12.4754 24.6501 12.337C24.6501 12.3027 24.6586 12.2507 24.676 12.1815C24.6932 12.1124 24.702 12.0736 24.702 12.065C24.5549 12.2378 24.352 12.376 24.0928 12.4796C23.8337 12.5832 23.5788 12.6351 23.3284 12.6351C22.8272 12.6351 22.4277 12.4841 22.1296 12.1816C21.8316 11.8793 21.6826 11.4733 21.6826 10.9635C21.6826 10.3329 21.9006 9.78424 22.3369 9.31773C22.7731 8.85122 23.3023 8.61793 23.9243 8.61793C24.5205 8.61793 24.9306 8.7909 25.1555 9.13632C25.1814 8.85122 25.2546 8.70863 25.3757 8.70863H26.3606C26.4124 8.70863 26.4555 8.7303 26.4901 8.77343C26.5247 8.81664 26.5376 8.86409 26.5291 8.91594ZM28.8228 6.99805L27.9805 12.2982C27.963 12.4625 27.8723 12.5444 27.7083 12.5444H26.853C26.8012 12.5444 26.7578 12.525 26.7235 12.4861C26.6888 12.4473 26.6715 12.4064 26.6715 12.363L26.6845 12.3371L27.5268 6.9464C27.544 6.85134 27.6001 6.80381 27.6953 6.80381H28.6542C28.7664 6.80381 28.8227 6.86429 28.8228 6.98521L28.8228 6.99805Z" fill="white"/>
<path d="M20.2955 8.14437C20.1918 8.05366 20.0837 7.9998 19.9715 7.98241C19.859 7.96518 19.7079 7.95654 19.5179 7.95654H19.2847C19.1895 7.95654 19.1334 8.00407 19.1163 8.09902L18.8959 9.4856L19.3106 9.47265C19.6907 9.47265 19.9758 9.40789 20.1659 9.27833C20.3559 9.14865 20.451 8.90252 20.451 8.53962C20.4509 8.36689 20.3992 8.23507 20.2955 8.14437ZM5.54877 8.10555C5.39327 8.00637 5.14258 7.95658 4.7972 7.95658H4.55087C4.45581 7.95658 4.39968 8.00411 4.38245 8.09905L4.16211 9.48564L4.58976 9.47269C4.92664 9.47269 5.1858 9.42535 5.36724 9.33017C5.54865 9.23511 5.66082 9.03651 5.70416 8.7341C5.75604 8.41454 5.7042 8.20497 5.54877 8.10555Z" fill="white"/>
</svg>

<svg xmlns="http://www.w3.org/2000/svg" width="31" height="21" fill="none"><path fill="#fff" d="M24.76 9.88a.87.87 0 0 0-.602-.213q-.48 0-.803.33t-.324.81q0 .363.233.57.233.208.609.208.467 0 .797-.324.33-.325.33-.79 0-.377-.24-.59m-14.72 0a.87.87 0 0 0-.603-.213q-.48 0-.803.33t-.324.81q0 .363.226.57.227.208.603.208.48 0 .81-.318.33-.317.33-.796 0-.377-.24-.59"/><path fill="#fff" d="M28.82.42H2.284A2.18 2.18 0 0 0 .104 2.597v15.487c0 1.201.978 2.178 2.179 2.178h26.538a2.18 2.18 0 0 0 2.178-2.178V2.598A2.18 2.18 0 0 0 28.821.419M4.889 10.626q-.039 0-.181-.013a3 3 0 0 0-.246-.013q-.105 0-.22.019a.4.4 0 0 0-.195.084.25.25 0 0 0-.09.169l-.234 1.425q-.026.246-.285.246h-.985a.16.16 0 0 1-.13-.064.17.17 0 0 1-.038-.143l.842-5.287q.026-.246.272-.246h2.073q.804 0 1.303.343t.499 1.108q0 1.115-.635 1.743-.636.63-1.75.629m6.92-1.711-.531 3.382q-.039.246-.285.246h-.894q-.17 0-.169-.207 0-.116.052-.272a1.64 1.64 0 0 1-.622.415 2 2 0 0 1-.752.155q-.75 0-1.198-.453-.447-.454-.447-1.219 0-.946.654-1.645t1.588-.7q.88 0 1.23.518.04-.427.22-.427h.986a.16.16 0 0 1 .13.064q.051.066.038.143m1.698 4.963h-.998q-.168 0-.168-.168 0-.105 1.062-1.556a45 45 0 0 0-.304-.906l-.545-1.594a15 15 0 0 1-.252-.765q0-.064.051-.123a.15.15 0 0 1 .117-.058h.972q.22 0 .285.207l.57 1.944 1.374-2.022a.27.27 0 0 1 .233-.13h.998q.064 0 .117.059.051.059.051.123 0 .065-.025.09l-3.305 4.77a.27.27 0 0 1-.233.129m6.103-3.252q-.039 0-.181-.013a3 3 0 0 0-.246-.013q-.105 0-.22.019a.4.4 0 0 0-.195.084.25.25 0 0 0-.09.169l-.234 1.503q-.052.168-.208.168h-1.062a.16.16 0 0 1-.13-.064.17.17 0 0 1-.038-.143l.842-5.287q.026-.246.285-.246h2.06q.804 0 1.303.343t.498 1.108q0 1.115-.634 1.743-.636.63-1.75.629m6.92-1.711-.531 3.382q-.039.246-.285.246h-.894q-.17 0-.169-.207 0-.051.026-.155t.026-.117q-.22.26-.61.415a2 2 0 0 1-.764.155q-.75 0-1.198-.453-.447-.454-.447-1.219 0-.946.654-1.645t1.587-.7q.894 0 1.232.518.038-.427.22-.427h.985a.16.16 0 0 1 .13.064q.051.066.038.143m2.294-1.918-.843 5.3q-.026.247-.272.246h-.855a.17.17 0 0 1-.13-.058.18.18 0 0 1-.051-.123l.012-.026.843-5.39q.026-.144.168-.143h.96q.167 0 .168.181z"/><path fill="#fff" d="M20.296 8.144a.64.64 0 0 0-.325-.162 3 3 0 0 0-.453-.025h-.233q-.144 0-.169.142l-.22 1.387.415-.013q.57 0 .855-.195.285-.194.285-.738 0-.26-.155-.396M5.549 8.106q-.234-.15-.752-.15h-.246q-.142 0-.169.143l-.22 1.387.428-.013q.505 0 .777-.143.273-.142.337-.596.078-.48-.155-.628"/></svg>
